assets/images/icon-email.svg

<?xml version="1.0" encoding="UTF-8" standalone="no"?>
<svg width="39px" height="31px" viewBox="0 0 39 31" version="1.1" xmlns="http://www.w3.org/2000/svg" xmlns:xlink="http://www.w3.org/1999/xlink">
    <!-- Generator: Sketch 45 (43475) - http://www.bohemiancoding.com/sketch -->
    <title>envelope</title>
    <desc>Created with Sketch.</desc>
    <defs></defs>
    <g id="Page-1" stroke="none" stroke-width="1" fill="none" fill-rule="evenodd">
        <g id="envelope" fill-rule="nonzero" fill="#454D5D">
            <path d="M38.2737205,9.69657874 L38.2737205,26.6549125 C38.2737205,27.594669 37.9391102,28.3991576 37.2698897,29.0683781 C36.6006691,29.7375987 35.7961806,30.072209 34.856424,30.072209 L3.41729647,30.072209 C2.47753994,30.072209 1.6730514,29.7375987 1.00383084,29.0683781 C0.33461028,28.3991576 0,27.594669 0,26.6549125 L0,9.69657874 C0.626504354,10.3942768 1.34556049,11.0136618 2.1571684,11.5547337 C7.31159058,15.0574626 10.8499163,17.5136444 12.7721456,18.9232792 C13.5837535,19.5213061 14.242295,19.9876247 14.7477701,20.322235 C15.2532452,20.6568452 15.9260254,20.9985749 16.7661108,21.3474239 C17.6061962,21.6962729 18.3893266,21.8706974 19.1155022,21.8706974 L19.1582184,21.8706974 C19.8843939,21.8706974 20.6675243,21.6962729 21.5076097,21.3474239 C22.3476951,20.9985749 23.0204753,20.6568452 23.5259504,20.322235 C24.0314255,19.9876247 24.689967,19.5213061 25.5015749,18.9232792 C27.9221599,17.1719148 31.467605,14.7157329 36.1379102,11.5547337 C36.9495181,10.999423 37.6614549,10.380038 38.2737205,9.69657874 Z M38.2737205,3.41729647 C38.2737205,4.54215656 37.9248715,5.61718108 37.2271735,6.64237002 C36.5294754,7.66755896 35.6609126,8.54324118 34.6214849,9.26941669 C29.2677204,12.9857266 25.9358564,15.2995211 24.6258927,16.2108001 C24.4835054,16.3104713 24.1809322,16.527612 23.7181733,16.8622223 C23.2554144,17.1968326 22.8709686,17.4673685 22.5648358,17.6738302 C22.258703,17.8802919 21.8884959,18.1116713 21.4542144,18.3679685 C21.019933,18.6242658 20.6105694,18.8164887 20.2261235,18.9446373 C19.8416777,19.0727859 19.4857093,19.1368603 19.1582184,19.1368603 L19.1155022,19.1368603 C18.7880112,19.1368603 18.4320429,19.0727859 18.047597,18.9446373 C17.6631511,18.8164887 17.2537875,18.6242658 16.8195061,18.3679685 C16.3852247,18.1116713 16.0150175,17.8802919 15.7088847,17.6738302 C15.4027519,17.4673685 15.0183061,17.1968326 14.5555472,16.8622223 C14.0927883,16.527612 13.7902151,16.3104713 13.6478278,16.2108001 C12.3521029,15.2995211 10.4868286,14.0002365 8.05200482,12.3129464 C5.61718108,10.6256562 4.15771071,9.61114633 3.67359371,9.26941669 C2.79079212,8.6713898 1.9578261,7.84910284 1.17469566,6.80255579 C0.391565221,5.75600875 0,4.78421506 0,3.88717474 C0,2.77655338 0.295453758,1.85103559 0.886361273,1.11062135 C1.47726879,0.370207118 2.32091386,0 3.41729647,0 L34.856424,0 C35.7819418,0 36.5828707,0.33461028 37.2592106,1.00383084 C37.9355505,1.6730514 38.2737205,2.47753994 38.2737205,3.41729647 Z" id="Shape"></path>
        </g>
    </g>
</svg>

<?xml version="1.0" encoding="utf-8"?>
<!-- Generator: Adobe Illustrator 16.0.4, SVG Export Plug-In . SVG Version: 6.00 Build 0)  -->
<!DOCTYPE svg PUBLIC "-//W3C//DTD SVG 1.1//EN" "http://www.w3.org/Graphics/SVG/1.1/DTD/svg11.dtd">
<svg version="1.1" id="Layer_1" xmlns="http://www.w3.org/2000/svg" xmlns:xlink="http://www.w3.org/1999/xlink" x="0px" y="0px"
	 width="39px" height="31px" viewBox="0 0 39 31" enable-background="new 0 0 39 31" xml:space="preserve">
<title>envelope</title>
<desc>Created with Sketch.</desc>
<g id="Page-1">
	<g id="envelope">
		<path id="Shape" fill="#2D2D2D" d="M38.273,9.697v16.958c0,0.94-0.334,1.745-1.004,2.414c-0.669,0.67-1.473,1.004-2.413,1.004
			H3.417c-0.94,0-1.745-0.334-2.414-1.004C0.334,28.399,0,27.595,0,26.654V9.697c0.626,0.698,1.346,1.317,2.157,1.858
			c5.154,3.503,8.693,5.959,10.615,7.369c0.812,0.598,1.47,1.064,1.976,1.398c0.506,0.334,1.178,0.676,2.019,1.025
			c0.84,0.349,1.623,0.523,2.35,0.523h0.042c0.726,0,1.51-0.175,2.35-0.523c0.84-0.35,1.513-0.691,2.018-1.025
			c0.506-0.334,1.164-0.801,1.977-1.398c2.42-1.752,5.966-4.208,10.636-7.369C36.949,11,37.662,10.38,38.273,9.697z M38.273,3.417
			c0,1.125-0.349,2.2-1.047,3.225c-0.697,1.025-1.565,1.9-2.605,2.627c-5.354,3.716-8.686,6.03-9.995,6.941
			c-0.143,0.1-0.444,0.316-0.907,0.651s-0.848,0.604-1.154,0.812c-0.306,0.207-0.676,0.438-1.11,0.694
			c-0.435,0.256-0.844,0.448-1.228,0.577c-0.385,0.127-0.741,0.191-1.068,0.191h-0.042c-0.328,0-0.684-0.064-1.068-0.191
			c-0.385-0.129-0.794-0.321-1.229-0.577c-0.434-0.257-0.804-0.487-1.11-0.694s-0.69-0.477-1.153-0.812s-0.766-0.552-0.908-0.651
			c-1.296-0.912-3.161-2.211-5.596-3.898C5.617,10.625,4.158,9.611,3.674,9.27c-0.883-0.598-1.716-1.42-2.499-2.467
			C0.392,5.756,0,4.784,0,3.887C0,2.776,0.295,1.851,0.886,1.11C1.477,0.37,2.321,0,3.417,0h31.439c0.925,0,1.727,0.334,2.403,1.004
			C37.936,1.673,38.273,2.478,38.273,3.417z"/>
	</g>
</g>
</svg>
